X:1032
T:Fort George Assembly.
M:C
L:1/8
Q:1/2=100
Z:Jack Campin * www.campin.me.uk * 2009
K:D
F   |D>FA>F A<dA>F|D>FAd eEEF    |D>FA>F A<dA>F|A>Bde fdd:|
f/g/|af`df  a>baf |af`df ge ef/g/|af`df  a>baf |Ad`de fdd
f/g/|af`df  ab`af |af`df geef    |dA`Bd  Ad`AF |GE`AG FDD|]

